X: 28628
T: Music In The Glen
R: reel
M: 4/4
K: Fmajor
|:F2AF DFCB,|A,CFA GFGA|B2dB ABcA|BGAF GFDC|
FGAF DFCB,|A,CFA GFGA|Bcde f2fd|cAGA F2C2:|
|:A2 cF dFcF|AFcA BG~G2|AF Ac ~d3e|fcAF GFDF|
AFAc dcde|f2ef gece|f2ef dfcA BGAF GFDF:|

